packages/dnb-ui-lib/assets/icons/bankid_with_qr_medium.svg

<svg width="24" height="24" viewBox="0 0 24 24" fill="none" xmlns="http://www.w3.org/2000/svg">
<path fill-rule="evenodd" clip-rule="evenodd" d="M2.25 1.5C2.05109 1.5 1.86032 1.57902 1.71967 1.71967C1.57902 1.86032 1.5 2.05109 1.5 2.25V6C1.5 6.41421 1.16421 6.75 0.75 6.75C0.335786 6.75 0 6.41421 0 6V2.25C0 1.65326 0.237053 1.08097 0.65901 0.65901C1.08097 0.237053 1.65326 0 2.25 0H6C6.41421 0 6.75 0.335786 6.75 0.75C6.75 1.16421 6.41421 1.5 6 1.5H2.25ZM5.25 4.5C4.83579 4.5 4.5 4.83579 4.5 5.25V8.25C4.5 8.66421 4.83579 9 5.25 9H8.25C8.66421 9 9 8.66421 9 8.25V5.25C9 4.83579 8.66421 4.5 8.25 4.5H5.25ZM5.25 15C4.83579 15 4.5 15.3358 4.5 15.75V18.75C4.5 19.1642 4.83579 19.5 5.25 19.5H8.25C8.66421 19.5 9 19.1642 9 18.75V15.75C9 15.3358 8.66421 15 8.25 15H5.25ZM15 5.25C15 4.83579 15.3358 4.5 15.75 4.5H18.75C19.1642 4.5 19.5 4.83579 19.5 5.25V8.25C19.5 8.66421 19.1642 9 18.75 9H15.75C15.3358 9 15 8.66421 15 8.25V5.25ZM5.25 12C4.83579 12 4.5 12.3358 4.5 12.75C4.5 13.1642 4.83579 13.5 5.25 13.5H10.5V14.25C10.5 14.6642 10.8358 15 11.25 15C11.6642 15 12 14.6642 12 14.25V12.75C12 12.3358 11.6642 12 11.25 12H5.25ZM6 18V16.5H7.5V18H6ZM14.25 13.5C14.6642 13.5 15 13.8358 15 14.25V18H18V15H17.25C16.8358 15 16.5 14.6642 16.5 14.25C16.5 13.8358 16.8358 13.5 17.25 13.5H18.75C19.1642 13.5 19.5 13.8358 19.5 14.25V18.75C19.5 19.1642 19.1642 19.5 18.75 19.5H14.25C13.8358 19.5 13.5 19.1642 13.5 18.75V14.25C13.5 13.8358 13.8358 13.5 14.25 13.5ZM12 17.25C12 16.8358 11.6642 16.5 11.25 16.5C10.8358 16.5 10.5 16.8358 10.5 17.25V18.75C10.5 19.1642 10.8358 19.5 11.25 19.5C11.6642 19.5 12 19.1642 12 18.75V17.25ZM11.25 4.5C11.6642 4.5 12 4.83579 12 5.25V9H12.75C13.1642 9 13.5 9.33579 13.5 9.75C13.5 10.1642 13.1642 10.5 12.75 10.5H11.25C10.8358 10.5 10.5 10.1642 10.5 9.75V5.25C10.5 4.83579 10.8358 4.5 11.25 4.5ZM15.75 10.5C15.3358 10.5 15 10.8358 15 11.25C15 11.6642 15.3358 12 15.75 12H18.75C19.1642 12 19.5 11.6642 19.5 11.25C19.5 10.8358 19.1642 10.5 18.75 10.5H15.75ZM6 7.5V6H7.5V7.5H6ZM18 0C17.5858 0 17.25 0.335786 17.25 0.75C17.25 1.16421 17.5858 1.5 18 1.5H21.75C21.9489 1.5 22.1397 1.57902 22.2803 1.71967C22.421 1.86032 22.5 2.05109 22.5 2.25V6C22.5 6.41421 22.8358 6.75 23.25 6.75C23.6642 6.75 24 6.41421 24 6V2.25C24 1.65326 23.7629 1.08097 23.341 0.65901C22.919 0.237053 22.3467 0 21.75 0H18ZM16.5 7.5H18V6H16.5V7.5ZM23.25 17.25C23.6642 17.25 24 17.5858 24 18V21.75C24 22.3467 23.7629 22.919 23.341 23.341C22.919 23.7629 22.3467 24 21.75 24H18C17.5858 24 17.25 23.6642 17.25 23.25C17.25 22.8358 17.5858 22.5 18 22.5H21.75C21.9489 22.5 22.1397 22.421 22.2803 22.2803C22.421 22.1397 22.5 21.9489 22.5 21.75V18C22.5 17.5858 22.8358 17.25 23.25 17.25ZM1.5 18C1.5 17.5858 1.16421 17.25 0.75 17.25C0.335786 17.25 0 17.5858 0 18V21.75C0 22.3467 0.237053 22.919 0.65901 23.341C1.08097 23.7629 1.65326 24 2.25 24H6C6.41421 24 6.75 23.6642 6.75 23.25C6.75 22.8358 6.41421 22.5 6 22.5H2.25C2.05109 22.5 1.86032 22.421 1.71967 22.2803C1.57902 22.1397 1.5 21.9489 1.5 21.75V18Z" fill="#333333"/>
</svg>

<svg width="24" height="24" viewBox="0 0 24 24" fill="none" xmlns="http://www.w3.org/2000/svg"><path fill-rule="evenodd" clip-rule="evenodd" d="M2.25 1.5a.75.75 0 00-.75.75V6A.75.75 0 010 6V2.25A2.25 2.25 0 012.25 0H6a.75.75 0 010 1.5H2.25zm3 3a.75.75 0 00-.75.75v3c0 .414.336.75.75.75h3A.75.75 0 009 8.25v-3a.75.75 0 00-.75-.75h-3zm0 10.5a.75.75 0 00-.75.75v3c0 .414.336.75.75.75h3a.75.75 0 00.75-.75v-3a.75.75 0 00-.75-.75h-3zM15 5.25a.75.75 0 01.75-.75h3a.75.75 0 01.75.75v3a.75.75 0 01-.75.75h-3a.75.75 0 01-.75-.75v-3zM5.25 12a.75.75 0 000 1.5h5.25v.75a.75.75 0 001.5 0v-1.5a.75.75 0 00-.75-.75h-6zM6 18v-1.5h1.5V18H6zm8.25-4.5a.75.75 0 01.75.75V18h3v-3h-.75a.75.75 0 010-1.5h1.5a.75.75 0 01.75.75v4.5a.75.75 0 01-.75.75h-4.5a.75.75 0 01-.75-.75v-4.5a.75.75 0 01.75-.75zM12 17.25a.75.75 0 00-1.5 0v1.5a.75.75 0 001.5 0v-1.5zM11.25 4.5a.75.75 0 01.75.75V9h.75a.75.75 0 010 1.5h-1.5a.75.75 0 01-.75-.75v-4.5a.75.75 0 01.75-.75zm4.5 6a.75.75 0 000 1.5h3a.75.75 0 000-1.5h-3zM6 7.5V6h1.5v1.5H6zM18 0a.75.75 0 000 1.5h3.75a.75.75 0 01.75.75V6A.75.75 0 0024 6V2.25A2.25 2.25 0 0021.75 0H18zm-1.5 7.5H18V6h-1.5v1.5zm6.75 9.75A.75.75 0 0124 18v3.75A2.25 2.25 0 0121.75 24H18a.75.75 0 010-1.5h3.75a.75.75 0 00.75-.75V18a.75.75 0 01.75-.75zM1.5 18A.75.75 0 000 18v3.75A2.25 2.25 0 002.25 24H6a.75.75 0 000-1.5H2.25a.75.75 0 01-.75-.75V18z" fill="#333"/></svg>
